Simply-Orange-Circles/scalable/apps/accessories-dictionary.svg

<?xml version="1.0" encoding="UTF-8" standalone="no"?>
<svg
   xmlns:dc="http://purl.org/dc/elements/1.1/"
   xmlns:cc="http://creativecommons.org/ns#"
   xmlns:rdf="http://www.w3.org/1999/02/22-rdf-syntax-ns#"
   xmlns:svg="http://www.w3.org/2000/svg"
   xmlns="http://www.w3.org/2000/svg"
   xmlns:sodipodi="http://sodipodi.sourceforge.net/DTD/sodipodi-0.dtd"
   xmlns:inkscape="http://www.inkscape.org/namespaces/inkscape"
   width="48"
   height="48"
   viewBox="0 0 12.7 12.7"
   version="1.1"
   id="svg4"
   sodipodi:docname="accessories-dictionary.svg"
   inkscape:version="0.92.4 (5da689c313, 2019-01-14)">
  <metadata
     id="metadata10">
    <rdf:RDF>
      <cc:Work
         rdf:about="">
        <dc:format>image/svg+xml</dc:format>
        <dc:type
           rdf:resource="http://purl.org/dc/dcmitype/StillImage" />
        <dc:title></dc:title>
      </cc:Work>
    </rdf:RDF>
  </metadata>
  <defs
     id="defs8" />
  <sodipodi:namedview
     pagecolor="#ffffff"
     bordercolor="#666666"
     borderopacity="1"
     objecttolerance="10"
     gridtolerance="10"
     guidetolerance="10"
     inkscape:pageopacity="0"
     inkscape:pageshadow="2"
     inkscape:window-width="1087"
     inkscape:window-height="480"
     id="namedview6"
     showgrid="false"
     inkscape:zoom="4.9166667"
     inkscape:cx="2.1355932"
     inkscape:cy="24"
     inkscape:window-x="0"
     inkscape:window-y="25"
     inkscape:window-maximized="0"
     inkscape:current-layer="svg4" />
  <path
     d="m 6.344,0.073 a 6.29,6.29 0 0 0 -6.29,6.29 6.29,6.29 0 0 0 6.29,6.288 6.29,6.29 0 0 0 6.29,-6.289 6.29,6.29 0 0 0 -6.29,-6.29 z M 6.326,1.009 A 5.407,5.407 0 0 1 11.733,6.416 5.407,5.407 0 0 1 6.326,11.823 5.407,5.407 0 0 1 0.92,6.416 5.407,5.407 0 0 1 6.326,1.01 Z M 4.296,2.943 C 3.654,2.948 3.026,3.233 2.552,3.502 2.274,3.672 2.252,3.744 2.247,4.085 L 2.227,8.697 C 2.231,8.853 2.277,9.027 2.44,8.938 2.491,8.904 2.542,8.871 2.592,8.84 4.282,7.803 5.7,8.541 6.189,9.757 L 6.132,4.073 C 5.597,3.216 4.939,2.939 4.296,2.943 Z m 4.108,0 C 7.761,2.939 7.104,3.216 6.568,4.073 L 6.511,9.757 C 7,8.541 8.418,7.803 10.108,8.84 c 0.05,0.031 0.1,0.064 0.152,0.098 0.163,0.089 0.21,-0.085 0.212,-0.241 L 10.452,4.085 C 10.448,3.744 10.426,3.672 10.148,3.502 9.674,3.232 9.046,2.947 8.404,2.943 Z"
     id="path2"
     inkscape:connector-curvature="0"
     style="fill:#ff7f2a" />
</svg>

<svg xmlns="http://www.w3.org/2000/svg" width="48" height="48" viewBox="0 0 12.7 12.7"><path fill="#ff7f2a" d="M6.34.07a6.29 6.29 0 0 0-6.29 6.3 6.29 6.29 0 0 0 6.3 6.28 6.29 6.29 0 0 0 6.28-6.29A6.29 6.29 0 0 0 6.34.07zm-.01.94a5.4 5.4 0 0 1 5.4 5.4 5.4 5.4 0 0 1-5.4 5.41 5.4 5.4 0 0 1-5.41-5.4A5.4 5.4 0 0 1 6.32 1zM4.3 2.94c-.65 0-1.27.3-1.75.56-.28.17-.3.24-.3.59l-.02 4.6c0 .16.05.34.21.25l.15-.1c1.7-1.04 3.11-.3 3.6.92l-.06-5.69c-.53-.85-1.2-1.13-1.83-1.13zm4.1 0c-.64 0-1.3.28-1.83 1.13L6.5 9.76c.49-1.22 1.9-1.96 3.6-.92l.15.1c.16.09.21-.09.21-.24l-.02-4.61c0-.35-.02-.42-.3-.59a3.72 3.72 0 0 0-1.75-.56z"/></svg>
